X:750
T:Xiraldilla (CT 037)
R:Xiraldilla
C:Tradicional
S:Msica Tradicional Asturiana, (C) Tello & Tito. Asturies, 2001.
S:http://pagina.de/MusTradAst <telloytito@asturies.org>
N:Xiraldilla, transcrita en Sama de Llangru.
A:Asturies
D:Felpeyu: Tierra
O:Sama de Llangru (Llangru)
Z:Cancioneru de Torner 037
M:2/4
L:1/8
Q:1/4=200
K:C
|(dB) dB|c3B|A2 GA|B2 G2|
(dB) dB|c3B|A2 dd|G2 z2|
|:G2 AB|c3B|A2 GA|B2 G2|
G2 AB|c3B|A2 dd|G2 z2:|
W:-Quin quiere entrar
W:conmigo en ro!
W:Quin quiere entrar
W:conmigo a nadar!
W:Yo que no s nadar, morenita,
W:yo que no s nadar entrar.
W:Yo que no s nadar, morenita,
W:yo que no s nadar morir.
W:
